src/assets/healthPage/SameDayCrowns/green.svg

<svg height="81" viewBox="0 0 466 81" width="466" xmlns="http://www.w3.org/2000/svg"><path d="m314 468v465h-4.000904c0-4.418278-3.581722-8-8-8s-8 3.581722-8 8h-11.999096c0-4.418278-3.581722-8-8-8s-8 3.581722-8 8h-12c0-4.418278-3.581722-8-8-8s-8 3.581722-8 8h-4v-465z" fill="#015c50" fill-rule="evenodd" transform="matrix(0 -1 1 0 -467.5 314.5)"/></svg>

<?xml version="1.0" encoding="UTF-8"?>
<svg width="466px" height="81px" viewBox="0 0 466 81" version="1.1" xmlns="http://www.w3.org/2000/svg" xmlns:xlink="http://www.w3.org/1999/xlink">
    <title>Combined Shape Copy</title>
    <g id="Design" stroke="none" stroke-width="1" fill="none" fill-rule="evenodd">
        <g id="Health---Same-Day-Crowns" transform="translate(-422.000000, -9057.000000)" fill="#015C50">
            <g id="Group-10" transform="translate(0.000000, 7125.000000)">
                <g id="Group-7" transform="translate(381.000000, 1272.000000)">
                    <path d="M314,468 L314,933 L309.999096,933 L309.999096,933 C309.999096,928.581722 306.417374,925 301.999096,925 C297.580818,925 293.999096,928.581722 293.999096,933 L282,933 L282,933 C282,928.581722 278.418278,925 274,925 C269.581722,925 266,928.581722 266,933 L254,933 L254,933 C254,928.581722 250.418278,925 246,925 C241.581722,925 238,928.581722 238,933 L234,933 L234,468 L314,468 Z" id="Combined-Shape-Copy" transform="translate(274.000000, 700.500000) rotate(-90.000000) translate(-274.000000, -700.500000) "></path>
                </g>
            </g>
        </g>
    </g>
</svg>
